!!!OTL: Gestern Abend in der stillen Ruh hoert' ich einer jungen Amsel zu
!!!ARE: Europa, Mitteleuropa, Deutschland, Baden, Freiburg i. Brsg.
!!!SCT: D0098
!!!YEM: Copyright 1995, estate of Helmut Schaffrath.
**kern
*ICvox
*Ivox
!! Mixed meters:  3/4; 4/4
*M3/4
*k[]
*C:
{8c
8g
=1
8g
8g
8g
8cc
8cc
8a
=2
4g
4e}
{8.a
16g
=3
*M4/4
4.b
8a
8.g
16f
8f
8e
=4
*M3/4
8f
8g
4e}
{8g
8g
=5
8f
8a
4d
8.b
16b
=6
8.cc
16a
8g
8a}
{8.a
16g
=7
8g
8f
4d
8.a
16a
=8
8b
8g
4g}
{8c
8g
=9
8g
8g
8g
8cc
8cc
8a
=10
4g
8e
16r
16a
8a
8g
=11
*M4/4
4b
8r}
{8a
8g
8f
8f
8e
=12
8f
8g
4e}
==
!!!AGN: Liebes - Lied
!! Inzipit = Variante zum Lied
!!!ONB: ESAC (Essen Associative Code) Database: DVA
!!!AMT: irregular
!!!AIN: vox
!!!EED: Helmut Schaffrath
!!!EEV: 1.0
*-
